X:390
T: Clog (The)
S: "100 Enduring Irish Session Tunes" ("Mally")
Z: B.Black
L: 1/8
M: 12/8
R: slide
K: G
B|ABA A2 G F2 G A2 B|cBc e2 d B3 B2 G|\
ABA A2 G F2 G A2 B|cBc e2 d G3 G2 :|
B|d2 g gfg f2 A A2 B|cBc e2 d B3 B2 c|\
d2 g gfg f2 A A2 B|cBc e2 d G3 G2 B|
d2 g gfg f2 A A2 B|cBc e2 d B3 B2 G|\
ABA A2 G F2 G A2 B|cBc e2 d G3 G2 ||
